!!!COM: Palestrina, Giovanni Perluigi da
!!!OPR: Missa Eripe me de inimicis
!!!OTL: Kyrie II
**kern	**kern	**kern	**kern	**kern
*Ibass	*Itenor	*Itenor	*Icalto	*Icant
!Bassus	!Tenor 2	!Tenor 1	!Altus	!Cantus
*clefF4	*clefGv2	*clefGv2	*clefG2	*clefG2
*k[]	*k[]	*k[]	*k[]	*k[]
*D:dor	*D:dor	*D:dor	*D:dor	*D:dor
*M4/2	*M4/2	*M4/2	*M4/2	*M4/2
=1	=1	=1	=1	=1
1A	0r	0r	0r	0r
2A	.	.	.	.
2A	.	.	.	.
=2	=2	=2	=2	=2
2F	0r	1d	0r	0r
2G	.	.	.	.
1B-	.	2d	.	.
.	.	2d	.	.
=3	=3	=3	=3	=3
2A	0r	2c	1r	0r
2.D	.	2d	.	.
.	.	1f	1a	.
4E	.	.	.	.
4F	.	.	.	.
4G	.	.	.	.
=4	=4	=4	=4	=4
2A	0r	2e	2a	0r
2F	.	2f	2a	.
4B-	.	2d	2f	.
4A	.	.	.	.
4G	.	[2e	2g	.
4F	.	.	.	.
=5	=5	=5	=5	=5
1G	0r	4e]	1b-	1r
.	.	4d	.	.
.	.	1d	.	.
1A	.	.	2.a	1ee
.	.	4c	.	.
.	.	4B	8g	.
.	.	.	8f	.
=6	=6	=6	=6	=6
1.A	0r	4c	2e	2ee
.	.	4d	.	.
.	.	2.e	2cc	2ee
.	.	.	2a	2cc
.	.	4d	.	.
2G	.	2B	[2b	2dd
=7	=7	=7	=7	=7
2F	1r	2c	4b]	1ff
.	.	.	4a	.
2D	.	2d	1a	.
[1E	1e	1B	.	2.ee
.	.	.	4g#	.
.	.	.	4f#	8dd
.	.	.	.	8cc
=8	=8	=8	=8	=8
1E]	2e	0r	4g#	2b
.	.	.	4a	.
.	2e	.	4b	1ee
.	.	.	4g	.
1r	2c	.	2cc	.
.	2d	.	[2b	2dd
=9	=9	=9	=9	=9
0r	1f	0r	4b]	2cc
.	.	.	4a	.
.	.	.	1a	4b
.	.	.	.	4a
.	1e	.	.	1b
.	.	.	2g#	.
=10	=10	=10	=10	=10
2r	1A	1r	0a	2a
2A	.	.	.	2cc
2A	2r	1e	.	2cc
2A	2A	.	.	2cc
=11	=11	=11	=11	=11
2G#	2B	2e	0r	2b
2.A	2c	2e	.	2a
.	2A	2c	.	4cc
4G	.	.	.	4b
4F	[2f	2d	.	4a
4E	.	.	.	4g
=12	=12	=12	=12	=12
2D	4f]	1f	2r	1a
.	4e	.	.	.
1d	2d	.	2a	.
.	2A	1e	2a	1r
2c#	[2a	.	2a	.
=13	=13	=13	=13	=13
2d	4a]	2d	2f	0r
.	4g	.	.	.
2c	2e	2.e	2g	.
2B-	2f	.	1b-	.
.	.	4d	.	.
2G	2g	[2d	.	.
=14	=14	=14	=14	=14
0A	2f	2d]	1a	2r
.	2.e	4c	.	2ee
.	.	4B	.	.
.	.	2.c	2r	2ee
.	4d	.	.	.
.	4c	.	2a	2ee
.	4B	4d	.	.
=15	=15	=15	=15	=15
0r	2A	2e	2a	2cc
.	1a	2f	2d	2dd
.	.	1d	4a	1ff
.	.	.	4g	.
.	2f	.	4a	.
.	.	.	4b	.
=16	=16	=16	=16	=16
1r	2g	2.c	1cc	[0ee
.	1a	.	.	.
.	.	4d	.	.
2r	.	2.e	1b	.
2E	4g	.	.	.
.	4f#	8d	.	.
.	.	8c	.	.
=17	=17	=17	=17	=17
2E	2.g	2B	2.e	1ee]
2E	.	2.c	.	.
.	4f	.	4f	.
2C	2e	.	2g	2r
.	.	4B	.	.
2D	2d	4A	[2f	[2a
.	.	4G	.	.
=18	=18	=18	=18	=18
1F	2c	1A	4f]	4a]
.	.	.	4g	4b
.	2A	.	1a	4cc
.	.	.	.	4dd
1E	1B	2r	.	2ee
.	.	2e	2g#	2ee
=19	=19	=19	=19	=19
1A	0A	2e	[0a	2.cc
.	.	2e	.	.
.	.	.	.	4dd
2r	.	2c	.	2ee
[2D	.	2d	.	[2ff
=20	=20	=20	=20	=20
4D]	2r	1f	1a]	4ff]
4E	.	.	.	4ee
4F	2a	.	.	1dd
4G	.	.	.	.
1A	2a	1e	2r	.
.	2a	.	2a	2cc#
=21	=21	=21	=21	=21
2D	2.f	1d	2a	2dd
1d	.	.	2a	1ff
.	4e	.	.	.
.	2d	1r	2f	.
2c	2e	.	2g	[2ee
=22	=22	=22	=22	=22
2B-	2f	1r	1b-	4ee]
.	.	.	.	4dd
2G	2g	.	.	1dd
1A	1e	2r	1a	.
.	.	2e	.	4cc
.	.	.	.	4b
=23	=23	=23	=23	=23
2r	1A	2e	[0a	2.cc
2A	.	2e	.	.
.	.	.	.	4dd
2A	2r	2c	.	2ee
2D	[2A	2d	.	[2ff
=24	=24	=24	=24	=24
4D	2A]	1f	0a]	4ff]
4E	.	.	.	4ee
4F	2.a	.	.	1dd
4G	.	.	.	.
1A	.	1e	.	.
.	4g	.	.	.
.	2e	.	.	2cc#
=25	=25	=25	=25	=25
[0D	[0f#	[0d	[0a	[0dd
=26	=26	=26	=26	=26
0D]	0f#]	0d]	0a]	0dd]
==	==	==	==	==
*-	*-	*-	*-	*-
!!!CDT: 1525/^1526/-1594/2/2
!!!OCY: Italia
!!!AGN: Mass (Parody)
!!!AST: renaissance, vocal
!!!ASW: Motet 1559 (Maillard)
!!!PWK: Masses, Book 4
!!!RNB: Cadence finals: A
!!!YOR: Le Opere Complete, v. 10, p. 79
!!!YOO: Rome, Italy: Fratelli Scalera
!!!END: 1992//
!!!EED: John Miller
!!!YEC: Copyright 2000, John Miller
!!!YEN: United States of America
!!!YEM: Rights to all derivative electronic formats reserved.
!!!YEM: Refer to licensing agreement for further details.
!!!YEM: This file must be accompanied by the licensing agreement.
!!!YEM: A copy of the licensing agreement may be found at http://www.music-cog.ohio-state.edu/HumdrumDatabases/Palestrina/license.txt
!!!EMD: converted to Humdrum by Bret Aarden
